X: 20456
T: John Joe Harnett's
R: slide
M: 12/8
K: Gmajor
|:G3 AGE G2E D2B|d2B ~A3 B2A ABA|
~G3 AGE G2E D2B|1 d2B ABA G3 G2F:|2 d2B ABA G3 GAB||
|:c3 cBA B3 BAG|A3 ABc d3 B2A|
~G3 AGE G2E D2B|1 d2B ABA G3 GAB:|2 d2B ABA G3 G2F||

